public/brands/d3.svg

<?xml version="1.0" encoding="UTF-8" standalone="no" ?>
<svg width="256px" height="243px" viewBox="0 0 256 243" version="1.1" xmlns="http://www.w3.org/2000/svg" xmlns:xlink="http://www.w3.org/1999/xlink" preserveAspectRatio="xMidYMid">
    <defs>
        <linearGradient x1="-82.6367258%" y1="-92.819878%" x2="103.767353%" y2="106.041826%" id="linearGradient-1">
            <stop stop-color="#F9A03C" offset="0%"></stop>
            <stop stop-color="#F7974E" offset="100%"></stop>
        </linearGradient>
        <linearGradient x1="-258.923825%" y1="-248.970263%" x2="97.6202479%" y2="98.7684937%" id="linearGradient-2">
            <stop stop-color="#F9A03C" offset="0%"></stop>
            <stop stop-color="#F7974E" offset="100%"></stop>
        </linearGradient>
        <linearGradient x1="-223.162629%" y1="-261.967947%" x2="94.0283377%" y2="101.690818%" id="linearGradient-3">
            <stop stop-color="#F9A03C" offset="0%"></stop>
            <stop stop-color="#F7974E" offset="100%"></stop>
        </linearGradient>
        <linearGradient x1="11.3387123%" y1="-1.82169774%" x2="82.496193%" y2="92.1067478%" id="linearGradient-4">
            <stop stop-color="#F26D58" offset="0%"></stop>
            <stop stop-color="#F9A03C" offset="100%"></stop>
        </linearGradient>
        <linearGradient x1="15.8436473%" y1="3.85803114%" x2="120.126091%" y2="72.3802579%" id="linearGradient-5">
            <stop stop-color="#B84E51" offset="0%"></stop>
            <stop stop-color="#F68E48" offset="100%"></stop>
        </linearGradient>
        <linearGradient x1="46.9841705%" y1="23.4664325%" x2="51.881003%" y2="147.391179%" id="linearGradient-6">
            <stop stop-color="#F9A03C" offset="0%"></stop>
            <stop stop-color="#F7974E" offset="100%"></stop>
        </linearGradient>
    </defs>
    <g>
        <path d="M255.52,175.618667 C255.634667,174.504 255.717333,173.378667 255.781333,172.248 C255.858667,170.909333 175.218667,94.3973333 175.218667,94.3973333 L173.290667,94.3973333 C173.290667,94.3973333 255.026667,180.613333 255.52,175.618667 L255.52,175.618667 L255.52,175.618667 Z" fill="url(#linearGradient-1)"></path>
        <path d="M83.472,149.077333 C83.3653333,149.312 83.2586667,149.546667 83.1493333,149.781333 C83.0346667,150.026667 82.9173333,150.272 82.8,150.514667 C80.2293333,155.874667 118.786667,193.568 121.888,188.989333 C122.029333,188.786667 122.170667,188.573333 122.312,188.370667 C122.469333,188.130667 122.624,187.901333 122.778667,187.661333 C125.258667,183.896 84.5733333,146.629333 83.472,149.077333 L83.472,149.077333 L83.472,149.077333 Z" fill="url(#linearGradient-2)"></path>
        <path d="M137.957333,202.082667 C137.848,202.322667 137.072,203.634667 136.362667,204.328 C136.242667,204.568 174.002667,242.016 174.002667,242.016 L177.402667,242.016 C177.405333,242.016 141.957333,203.666667 137.957333,202.082667 L137.957333,202.082667 L137.957333,202.082667 Z" fill="url(#linearGradient-3)"></path>
        <path d="M255.834667,171.568 C254.069333,210.714667 221.682667,242.016 182.114667,242.016 L176.765333,242.016 L137.250667,203.088 C140.501333,198.504 143.522667,193.754667 146.213333,188.802667 L182.114667,188.802667 C193.469333,188.802667 202.709333,179.568 202.709333,168.208 C202.709333,156.853333 193.469333,147.613333 182.114667,147.613333 L160.869333,147.613333 C162.488,139.056 163.373333,130.232 163.373333,121.205333 C163.373333,112.04 162.472,103.090667 160.794667,94.3973333 L173.992,94.3973333 L255.602667,174.810667 C255.698667,173.733333 255.776,172.656 255.834667,171.568 L255.834667,171.568 L255.834667,171.568 Z M21.4666667,0 L0,0 L0,53.2133333 L21.4666667,53.2133333 C58.96,53.2133333 89.4666667,83.712 89.4666667,121.205333 C89.4666667,131.405333 87.192,141.088 83.1493333,149.781333 L122.312,188.370667 C135.170667,169.130667 142.688,146.032 142.688,121.205333 C142.688,54.3733333 88.3066667,0 21.4666667,0 L21.4666667,0 L21.4666667,0 Z" fill="url(#linearGradient-4)"></path>
        <path d="M182.114667,0 L95.1866667,0 C116.418667,12.9626667 134,31.344 145.978667,53.2133333 L182.114667,53.2133333 C193.469333,53.2133333 202.709333,62.448 202.709333,73.808 C202.709333,85.1653333 193.469333,94.4 182.114667,94.4 L173.994667,94.4 L255.605333,174.813333 C255.797333,172.632 255.917333,170.437333 255.917333,168.208 C255.917333,150.269333 249.48,133.813333 238.792,121.005333 C249.48,108.202667 255.917333,91.744 255.917333,73.808 C255.917333,33.112 222.813333,0 182.114667,0 L182.114667,0 L182.114667,0 Z" fill="url(#linearGradient-5)"></path>
        <path d="M176.765333,242.016 L95.808,242.016 C112.104,231.952 126.192,218.666667 137.250667,203.088 L176.765333,242.016 L176.765333,242.016 Z M122.312,188.370667 L83.152,149.781333 C72.3333333,173.032 48.7573333,189.202667 21.4666667,189.202667 L0,189.202667 L0,242.410667 L21.4666667,242.410667 C63.4773333,242.410667 100.557333,220.922667 122.312,188.370667 L122.312,188.370667 L122.312,188.370667 Z" fill="url(#linearGradient-6)"></path>
    </g>
</svg>

<svg width="256" height="243" viewBox="0 0 256 243" xmlns="http://www.w3.org/2000/svg" preserveAspectRatio="xMidYMid"><defs><linearGradient x1="-82.637%" y1="-92.82%" x2="103.767%" y2="106.042%" id="a"><stop stop-color="#F9A03C" offset="0%"/><stop stop-color="#F7974E" offset="100%"/></linearGradient><linearGradient x1="-258.924%" y1="-248.97%" x2="97.62%" y2="98.768%" id="b"><stop stop-color="#F9A03C" offset="0%"/><stop stop-color="#F7974E" offset="100%"/></linearGradient><linearGradient x1="-223.163%" y1="-261.968%" x2="94.028%" y2="101.691%" id="c"><stop stop-color="#F9A03C" offset="0%"/><stop stop-color="#F7974E" offset="100%"/></linearGradient><linearGradient x1="11.339%" y1="-1.822%" x2="82.496%" y2="92.107%" id="d"><stop stop-color="#F26D58" offset="0%"/><stop stop-color="#F9A03C" offset="100%"/></linearGradient><linearGradient x1="15.844%" y1="3.858%" x2="120.126%" y2="72.38%" id="e"><stop stop-color="#B84E51" offset="0%"/><stop stop-color="#F68E48" offset="100%"/></linearGradient><linearGradient x1="46.984%" y1="23.466%" x2="51.881%" y2="147.391%" id="f"><stop stop-color="#F9A03C" offset="0%"/><stop stop-color="#F7974E" offset="100%"/></linearGradient></defs><path d="M255.52 175.619c.115-1.115.197-2.24.261-3.371.078-1.339-80.562-77.85-80.562-77.85h-1.928s81.736 86.215 82.229 81.22z" fill="url(#a)"/><path d="M83.472 149.077c-.107.235-.213.47-.323.704-.114.246-.232.491-.349.734-2.57 5.36 35.987 43.053 39.088 38.474.141-.202.283-.416.424-.618.157-.24.312-.47.467-.71 2.48-3.765-38.206-41.032-39.307-38.584z" fill="url(#b)"/><path d="M137.957 202.083c-.109.24-.885 1.552-1.594 2.245-.12.24 37.64 37.688 37.64 37.688h3.4c.002 0-35.446-38.35-39.446-39.933z" fill="url(#c)"/><path d="M255.835 171.568c-1.766 39.147-34.152 70.448-73.72 70.448h-5.35l-39.514-38.928c3.25-4.584 6.272-9.333 8.962-14.285h35.902c11.354 0 20.594-9.235 20.594-20.595 0-11.355-9.24-20.595-20.594-20.595h-21.246c1.619-8.557 2.504-17.381 2.504-26.408 0-9.165-.901-18.114-2.578-26.808h13.197l81.61 80.414c.097-1.078.174-2.155.233-3.243zM21.467 0H0v53.213h21.467c37.493 0 68 30.499 68 67.992 0 10.2-2.275 19.883-6.318 28.576l39.163 38.59c12.859-19.24 20.376-42.339 20.376-67.166C142.688 54.373 88.307 0 21.467 0z" fill="url(#d)"/><path d="M182.115 0H95.187C116.419 12.963 134 31.344 145.979 53.213h36.136c11.354 0 20.594 9.235 20.594 20.595 0 11.357-9.24 20.592-20.594 20.592h-8.12l81.61 80.413c.192-2.181.312-4.376.312-6.605 0-17.939-6.437-34.395-17.125-47.203 10.688-12.802 17.125-29.261 17.125-47.197C255.917 33.112 222.813 0 182.115 0z" fill="url(#e)"/><path d="M176.765 242.016H95.808c16.296-10.064 30.384-23.35 41.443-38.928l39.514 38.928zm-54.453-53.645l-39.16-38.59c-10.819 23.251-34.395 39.422-61.685 39.422H0v53.208h21.467c42.01 0 79.09-21.488 100.845-54.04z" fill="url(#f)"/></svg>
